X: 37
T:Hump Landlay. WI.037
T:Over The Dike Bellow. WI.037
M:C|
L:1/8
Q:160
C:"..or Over The Dike Bellow"
S:Wm Irwin, 1838 MS, AGG's Transcription
R:Reel
O:England
A:Lake District
Z:vmp.Chris Partington.2005
K:G
GDEG B,GA,G|G,B c/B/A/G/ FAA2|Bdgd edgd|BAdc BGG2:|!
|:d/e/f gd Bdgd|ceac BA/G/F2|d/e/f gd edgd|BAdc BGG2:|]
